desc:Parameter Scaler
slider1:Input=0<0,100,.01>Input
slider2:Output=0<0,100,.01>Output
slider3:Offset=0<0,100,.01>Offset
slider4:Scale=100<0,100,.001>Scale

@slider
Output=Offset + (Input * Scale/100)
